_site/images/verification-page/verification-advanced.svg

<svg fill="none" height="42" viewBox="0 0 42 42" width="42" xmlns="http://www.w3.org/2000/svg"><path d="m33.6956 41.4715h-25.91969c-4.29489 0-7.77591-3.481-7.77591-7.7759v-25.91969c0-4.29489 3.48102-7.77591 7.77591-7.77591h25.91969c4.2949 0 7.7759 3.48102 7.7759 7.77591v25.91969c0 4.2949-3.481 7.7759-7.7759 7.7759z" fill="#e0f2f4"/><g fill="#00a0b6"><path d="m24.7785 12.9859-6.9127-2.592c-.1037-.035-.2074-.035-.3111 0l-6.9128 2.592c-.1633.0609-.2747.2242-.2747.4056v5.5559c0 5.8838 4.0085 8.3034 6.0574 9.1588.0869-1.7885 1.2442-3.3268 2.8771-3.9567.9318-2.0308 3.0145-3.4136 5.3213-3.4136.0946 0 .1983 0 .2942.0091.0946-.5612.1387-1.1574.1387-1.7976v-5.5559c-.0013-.1814-.1128-.3447-.2774-.4056z"/><path d="m27.7802 31.1036h-6.8363c-1.5436 0-2.7994-1.2402-2.7994-2.7643 0-1.4178 1.0861-2.5894 2.4805-2.7462.429-1.8066 2.0892-3.1285 4.0008-3.1285 1.5046 0 2.8926.8191 3.6054 2.1086 1.6303.2112 2.8732 1.5927 2.8732 3.2477 0 1.8105-1.4904 3.2827-3.3242 3.2827z"/></g></svg>

<svg width="42" height="42" viewBox="0 0 42 42" fill="none" xmlns="http://www.w3.org/2000/svg">
<path d="M33.6956 41.4715H7.77591C3.48102 41.4715 0 37.9905 0 33.6956V7.77591C0 3.48102 3.48102 0 7.77591 0H33.6956C37.9905 0 41.4715 3.48102 41.4715 7.77591V33.6956C41.4715 37.9905 37.9905 41.4715 33.6956 41.4715Z" fill="#E0F2F4"/>
<path d="M24.7785 12.9859L17.8658 10.3939C17.7621 10.3589 17.6584 10.3589 17.5547 10.3939L10.6419 12.9859C10.4786 13.0468 10.3672 13.2101 10.3672 13.3915V18.9474C10.3672 24.8312 14.3757 27.2508 16.4246 28.1062C16.5115 26.3177 17.6688 24.7794 19.3017 24.1495C20.2335 22.1187 22.3162 20.7359 24.623 20.7359C24.7176 20.7359 24.8213 20.7359 24.9172 20.745C25.0118 20.1838 25.0559 19.5876 25.0559 18.9474V13.3915C25.0546 13.2101 24.9431 13.0468 24.7785 12.9859Z" fill="#00A0B6"/>
<path d="M27.7802 31.1036H20.9439C19.4003 31.1036 18.1445 29.8634 18.1445 28.3393C18.1445 26.9215 19.2306 25.7499 20.625 25.5931C21.054 23.7865 22.7142 22.4646 24.6258 22.4646C26.1304 22.4646 27.5184 23.2837 28.2312 24.5732C29.8615 24.7844 31.1044 26.1659 31.1044 27.8209C31.1044 29.6314 29.614 31.1036 27.7802 31.1036Z" fill="#00A0B6"/>
</svg>
